dist/img/logo.svg

<svg width="130" height="30" viewBox="0 0 130 30" fill="none" xmlns="http://www.w3.org/2000/svg">
<g id="Group">
<g id="Group 20 Copy 11">
<g id="Group 3">
<mask id="mask0" mask-type="alpha" maskUnits="userSpaceOnUse" x="0" y="0" width="57" height="30">
<path id="Clip 2" fill-rule="evenodd" clip-rule="evenodd" d="M0 0H56.25V30H0V0Z" fill="white"/>
</mask>
<g mask="url(#mask0)">
<path id="Fill 1" fill-rule="evenodd" clip-rule="evenodd" d="M1.35 30C0.6043 30 0 29.4145 0 28.692V1.308C0 0.5855 0.6043 0 1.35 0H49.6073C53.2765 0 56.25 2.8815 56.25 6.436V28.692C56.25 29.4145 55.6457 30 54.9 30H1.35Z" fill="#601DC0"/>
</g>
</g>
<path id="Fill 8" fill-rule="evenodd" clip-rule="evenodd" d="M41.3945 6.625V9.217H38.3772V23.425H35.7191V9.217H32.6774V6.625H41.3945Z" fill="white"/>
<path id="Fill 10" fill-rule="evenodd" clip-rule="evenodd" d="M45.3352 16.561H48.2333L46.796 9.6965L45.3352 16.561ZM49.502 23.425L48.5441 19.249H45.0479L44.0661 23.425H41.408L45.0958 6.625H48.4723L52.1601 23.425H49.502Z" fill="white"/>
<path id="Path 2" d="M20.5792 6.625H30.2286V9.125H24.7498L27.8952 14.9963L24.7315 20.9768L30.2354 21.0068L30.2218 23.5068L20.5975 23.4543L25.0679 15.0037L20.5792 6.625Z" fill="white"/>
<path id="Path 2 Copy 6" d="M11.6006 14.1902L15.7061 6.64733L18.1908 6.64355L18.2269 23.3604L15.7269 23.3657L15.7061 11.8246L11.6016 18.8036L7.47424 11.8246L7.47424 23.3631H4.97424L4.97424 6.64733L7.47424 6.64733L11.6006 14.1902Z" fill="white"/>
</g>
<path id="RATINGS Copy 10" fill-rule="evenodd" clip-rule="evenodd" d="M60 6.46967H63.8953C64.5644 6.46967 65.1937 6.54695 65.7832 6.70153C66.3727 6.85611 66.9303 7.10018 67.456 7.43375C67.9818 7.76732 68.4 8.24732 68.7107 8.87378C69.0213 9.50024 69.1767 10.2446 69.1767 11.107V12.0345C69.1767 13.8569 68.3801 15.118 66.7869 15.8176L69.4395 23.5547H66.6435L64.4211 16.6475H62.6526V23.5547H60V6.46967ZM66.5718 11.6684V11.4732C66.5718 10.6108 66.3568 9.99652 65.9266 9.6304C65.4964 9.26429 64.9548 9.08124 64.3016 9.08124H62.6526V14.0359H64.3016C64.9388 14.0359 65.4765 13.8529 65.9147 13.4868C66.3528 13.1206 66.5718 12.5145 66.5718 11.6684ZM78.8479 23.5547L77.892 19.3079H74.4029L73.4231 23.5547H70.7705L74.4507 6.46967H77.8203L81.5005 23.5547H78.8479ZM74.6897 16.5743H77.5813L76.1475 9.59379L74.6897 16.5743ZM89.8574 6.46967V9.10565H86.8463V23.5547H84.1936V9.10565H81.1587V6.46967H89.8574ZM91.7858 23.5547V6.46967H94.534V23.5547H91.7858ZM104.038 6.46967H106.595V23.5547H103.99L99.2345 12.6691V23.5547H96.6536V6.46967H99.2823L104.038 17.3553V6.46967ZM108.715 17.8434V12.1566C108.715 11.0664 108.85 10.1267 109.121 9.33752C109.392 8.54835 109.762 7.93817 110.232 7.50697C110.702 7.07578 111.212 6.75849 111.761 6.55509C112.311 6.3517 112.905 6.25 113.542 6.25C114.163 6.25 114.741 6.34763 115.274 6.54289C115.808 6.73815 116.31 7.0473 116.78 7.47036C117.25 7.89342 117.62 8.49546 117.891 9.2765C118.162 10.0575 118.305 10.985 118.321 12.0589V12.303H115.74V12.1321C115.709 11.0094 115.494 10.1877 115.095 9.66702C114.697 9.14632 114.179 8.88598 113.542 8.88598C112.092 8.88598 111.367 10.0331 111.367 12.3274V17.6482C111.367 19.9588 112.092 21.114 113.542 21.114C114.195 21.114 114.725 20.8496 115.131 20.3208C115.537 19.792 115.74 18.9336 115.74 17.7458V16.6475H113.614V14.0115H118.321V17.8434C118.321 18.9336 118.186 19.8774 117.915 20.6747C117.644 21.472 117.274 22.0862 116.804 22.5174C116.334 22.9486 115.828 23.2619 115.286 23.4571C114.745 23.6524 114.163 23.75 113.542 23.75C112.905 23.75 112.311 23.6483 111.761 23.4449C111.212 23.2415 110.702 22.9242 110.232 22.493C109.762 22.0618 109.392 21.4517 109.121 20.6625C108.85 19.8733 108.715 18.9336 108.715 17.8434ZM120.154 18.2584H122.711C122.711 19.2184 122.934 19.9343 123.38 20.4062C123.826 20.8781 124.376 21.114 125.029 21.114C125.778 21.114 126.352 20.9025 126.75 20.4794C127.148 20.0564 127.347 19.4625 127.347 18.6977C127.347 17.8841 127.128 17.2943 126.69 16.9282C126.252 16.5621 125.523 16.257 124.504 16.0129C124.121 15.9315 123.779 15.838 123.476 15.7322C123.173 15.6265 122.827 15.4515 122.436 15.2075C122.046 14.9634 121.719 14.6868 121.457 14.3776C121.194 14.0685 120.971 13.6495 120.787 13.1206C120.604 12.5918 120.513 12.002 120.513 11.3511C120.513 10.4236 120.644 9.6182 120.907 8.9348C121.17 8.25139 121.528 7.72257 121.982 7.34833C122.436 6.97408 122.926 6.69747 123.452 6.51848C123.978 6.33949 124.543 6.25 125.149 6.25C125.754 6.25 126.316 6.34356 126.834 6.53068C127.351 6.71781 127.837 7.01476 128.291 7.42155C128.745 7.82834 129.108 8.4019 129.379 9.14226C129.65 9.88262 129.785 10.7572 129.785 11.766H127.228C127.228 10.8223 127.033 10.1063 126.642 9.6182C126.252 9.13005 125.758 8.88598 125.161 8.88598C124.563 8.88598 124.081 9.08938 123.715 9.49616C123.349 9.90295 123.165 10.4643 123.165 11.1803C123.165 11.5057 123.221 11.7986 123.333 12.0589C123.444 12.3193 123.572 12.5227 123.715 12.6691C123.858 12.8156 124.061 12.9457 124.324 13.0596C124.587 13.1735 124.798 13.2508 124.958 13.2915C125.117 13.3322 125.332 13.3851 125.603 13.4501C125.683 13.4664 125.738 13.4745 125.77 13.4745C128.59 14.0929 130 15.7444 130 18.4292C130 19.4055 129.869 20.2476 129.606 20.9554C129.343 21.6632 128.972 22.2164 128.494 22.6151C128.017 23.0137 127.495 23.3025 126.929 23.4815C126.364 23.6605 125.73 23.75 125.029 23.75C124.408 23.75 123.822 23.6564 123.273 23.4693C122.723 23.2822 122.209 22.9852 121.731 22.5785C121.253 22.1717 120.871 21.5981 120.584 20.8577C120.298 20.1174 120.154 19.2509 120.154 18.2584Z" fill="black"/>
</g>
</svg>

<svg width="130" height="30" viewBox="0 0 130 30" fill="none" xmlns="http://www.w3.org/2000/svg"><g id="Group"><g id="Group 20 Copy 11"><g id="Group 3"><mask id="mask0" maskUnits="userSpaceOnUse" x="0" y="0" width="57" height="30"><path id="Clip 2" fill-rule="evenodd" clip-rule="evenodd" d="M0 0h56.25v30H0V0z" fill="#fff"/></mask><g mask="url(#mask0)"><path id="Fill 1" fill-rule="evenodd" clip-rule="evenodd" d="M1.35 30C.604 30 0 29.415 0 28.692V1.308C0 .585.604 0 1.35 0h48.257c3.67 0 6.643 2.881 6.643 6.436v22.256c0 .723-.604 1.308-1.35 1.308H1.35z" fill="#601DC0"/></g></g><path id="Fill 8" fill-rule="evenodd" clip-rule="evenodd" d="M41.395 6.625v2.592h-3.018v14.208H35.72V9.217h-3.042V6.625h8.718z" fill="#fff"/><path id="Fill 10" fill-rule="evenodd" clip-rule="evenodd" d="M45.335 16.561h2.898l-1.437-6.864-1.46 6.864zm4.167 6.864l-.958-4.176h-3.496l-.982 4.176h-2.658l3.688-16.8h3.376l3.688 16.8h-2.658z" fill="#fff"/><path id="Path 2" d="M20.58 6.625h9.649v2.5h-5.48l3.146 5.871-3.163 5.98 5.503.03-.013 2.5-9.625-.052 4.47-8.45-4.488-8.379z" fill="#fff"/><path id="Path 2 Copy 6" d="M11.6 14.19l4.106-7.543 2.485-.003.036 16.716-2.5.006-.02-11.541-4.105 6.979-4.128-6.98v11.54h-2.5V6.646h2.5l4.127 7.543z" fill="#fff"/></g><path id="RATINGS Copy 10" fill-rule="evenodd" clip-rule="evenodd" d="M60 6.47h3.895c.67 0 1.299.077 1.888.232.59.154 1.147.398 1.673.732.526.333.944.813 1.255 1.44.31.626.466 1.37.466 2.233v.928c0 1.822-.797 3.083-2.39 3.783l2.652 7.737h-2.795l-2.223-6.907h-1.768v6.907H60V6.47zm6.572 5.198v-.195c0-.862-.215-1.476-.645-1.843-.43-.366-.972-.549-1.625-.549h-1.65v4.955h1.65c.637 0 1.174-.183 1.613-.55.438-.365.657-.972.657-1.818zm12.276 11.887l-.956-4.247h-3.49l-.979 4.247H70.77L74.45 6.47h3.37l3.68 17.085h-2.652zm-4.158-6.98h2.891l-1.434-6.981-1.457 6.98zM89.857 6.47v2.636h-3.01v14.449h-2.653V9.105h-3.035V6.47h8.698zm1.929 17.085V6.47h2.748v17.085h-2.748zM104.038 6.47h2.557v17.085h-2.605l-4.755-10.886v10.886h-2.581V6.47h2.628l4.756 10.885V6.47zm4.677 11.373v-5.686c0-1.09.135-2.03.406-2.82.271-.789.641-1.399 1.111-1.83a4.64 4.64 0 011.529-.952 5.096 5.096 0 011.781-.305 5 5 0 011.732.293 4.622 4.622 0 011.506.927c.47.423.84 1.025 1.111 1.807.271.78.414 1.708.43 2.782v.244h-2.581v-.17c-.031-1.124-.246-1.945-.645-2.466-.398-.52-.916-.781-1.553-.781-1.45 0-2.175 1.147-2.175 3.441v5.321c0 2.31.725 3.466 2.175 3.466.653 0 1.183-.264 1.589-.793.406-.529.609-1.387.609-2.575v-1.098h-2.126v-2.636h4.707v3.831c0 1.09-.135 2.034-.406 2.832-.271.797-.641 1.411-1.111 1.842a4.48 4.48 0 01-1.518.94 5.1 5.1 0 01-1.744.293 5.096 5.096 0 01-1.781-.305 4.64 4.64 0 01-1.529-.952c-.47-.431-.84-1.041-1.111-1.83-.271-.79-.406-1.73-.406-2.82zm11.439.415h2.557c0 .96.223 1.676.669 2.148a2.18 2.18 0 001.649.708c.749 0 1.323-.212 1.721-.635.398-.423.597-1.017.597-1.781 0-.814-.219-1.404-.657-1.77-.438-.366-1.167-.671-2.186-.915a8.472 8.472 0 01-1.028-.28 5.367 5.367 0 01-1.04-.526 4.167 4.167 0 01-.979-.83c-.263-.309-.486-.728-.67-1.256a5.386 5.386 0 01-.274-1.77c0-.927.131-1.733.394-2.416.263-.684.621-1.212 1.075-1.587.454-.374.944-.65 1.47-.83a5.231 5.231 0 011.697-.268c.605 0 1.167.094 1.685.28a4.452 4.452 0 011.457.892c.454.406.817.98 1.088 1.72.271.74.406 1.615.406 2.624h-2.557c0-.944-.195-1.66-.586-2.148-.39-.488-.884-.732-1.481-.732-.598 0-1.08.203-1.446.61-.366.407-.55.968-.55 1.684 0 .326.056.619.168.879.111.26.239.464.382.61.143.147.346.277.609.39.263.115.474.192.634.232.159.041.374.094.645.16.08.015.135.024.167.024 2.82.618 4.23 2.27 4.23 4.954 0 .977-.131 1.819-.394 2.526-.263.708-.634 1.261-1.112 1.66a4.578 4.578 0 01-1.565.867 6.279 6.279 0 01-1.9.268 5.41 5.41 0 01-1.756-.28 4.715 4.715 0 01-1.542-.892c-.478-.406-.86-.98-1.147-1.72-.286-.74-.43-1.607-.43-2.6z" fill="#000"/></g></svg>
